images/client-logos/ceva.svg

<svg height="200" viewBox="0 0 400 200" width="400" xmlns="http://www.w3.org/2000/svg"><g fill="#e3e8f0" fill-rule="evenodd"><path d="m203.815385 5.29230769c-2.707693-3.2-5.661539-5.29230769-9.6-5.29230769-3.938462 0-7.384616 1.6-10.83077 4.18461538l-163.4461535 123.93846162h287.2615385zm144.984615 192.12307731c1.230769 1.353846 2.953846 2.338461 4.923077 2.338461 3.569231 0 6.4-2.830769 6.4-6.4 0-1.6-.615385-3.076923-1.476923-4.184615l-39.015385-46.4c-2.830769-3.323077-7.015384-5.415385-11.815384-5.415385h-1.723077c-4.676923 0-8.984616 2.092308-11.815385 5.415385l-39.138461 46.4c-.984616 1.107692-1.476924 2.584615-1.476924 4.184615 0 3.569231 2.83077 6.4 6.4 6.4 1.969231 0 3.692308-.861538 4.923077-2.338461l39.138462-46.4c.615385-.738462 1.723077-1.23077 2.707692-1.23077 1.107693 0 2.092308.492308 2.707693 1.23077zm-50.584615-17.6h17.476923c3.446154 0 6.276923-2.83077 6.276923-6.276923 0-3.446154-2.830769-6.276924-6.276923-6.276924-6.4 0-11.076923 0-17.476923 0-3.446154 0-6.276923 2.83077-6.276923 6.276924.123076 3.446153 2.830769 6.276923 6.276923 6.276923z"/><path d="m202.215385 1.72295385 187.692307 101.29230815s9.476923 5.16923 9.476923 15.138461v26.584739zm-125.2923081 148.06166115c3.4461539 0 6.2769231-2.830769 6.2769231-6.276923s-2.8307692-6.276923-6.2769231-6.276923h-59.4461538c-9.60000002 0-17.4769231 7.876923-17.4769231 17.476923v27.446154c0 9.6 7.87692308 17.476923 17.4769231 17.476923h59.4461538c3.4461539 0 6.2769231-2.830769 6.2769231-6.276923s-2.8307692-6.276923-6.2769231-6.276923h-59.4461538c-2.7076923 0-5.0461539-2.215385-5.0461539-5.046154v-27.446154c0-2.707692 2.2153846-5.046153 5.0461539-5.046153h59.4461538zm25.3538461 49.969231c-9.5999999 0-17.476923-7.876923-17.476923-17.476923v-27.446154c0-9.6 7.8769231-17.476923 17.476923-17.476923h53.292308c9.6 0 17.476923 7.876923 17.476923 17.476923v.861539c0 9.6-7.876923 17.476923-17.476923 17.476923h-45.784616c-3.446153 0-6.276923-2.830769-6.276923-6.276923s2.83077-6.276923 6.276923-6.276923h45.784616c2.707692 0 5.046154-2.215385 5.046154-5.046154v-.861539c0-2.707692-2.215385-5.046154-5.046154-5.046154h-53.292308c-2.7076922 0-5.0461538 2.215385-5.0461538 5.046154v27.446154c0 2.707692 2.2153846 5.046154 5.0461538 5.046154h64.492308c3.446154 0 6.276923 2.830769 6.276923 6.276923s-2.830769 6.276923-6.276923 6.276923zm83.815385-60.184615c-1.23077-1.353846-2.953846-2.338462-4.923077-2.338462-3.569231 0-6.4 2.830769-6.4 6.4 0 1.6.615384 3.076923 1.476923 4.184616l39.138461 46.4c2.83077 3.323077 7.015385 5.415384 11.815385 5.415384h1.723077c4.676923 0 8.984615-2.092307 11.815385-5.415384l39.138461-46.4c.984615-1.107693 1.476923-2.584616 1.476923-4.184616 0-3.569231-2.830769-6.4-6.4-6.4-1.969231 0-3.692308.861539-4.923077 2.338462l-39.138461 46.4c-.615385.738461-1.723077 1.230769-2.707693 1.230769-1.107692 0-2.092307-.492308-2.707692-1.230769z"/></g></svg>

<?xml version="1.0" encoding="UTF-8"?>
<svg width="400px" height="200px" viewBox="0 0 400 200" version="1.1" xmlns="http://www.w3.org/2000/svg" xmlns:xlink="http://www.w3.org/1999/xlink">
    <!-- Generator: Sketch 52.4 (67378) - http://www.bohemiancoding.com/sketch -->
    <title>ceva@1x</title>
    <desc>Created with Sketch.</desc>
    <g id="Page-1" stroke="none" stroke-width="1" fill="none" fill-rule="evenodd">
        <g id="ceva" fill="#E3E8F0">
            <path d="M203.815385,5.29230769 C201.107692,2.09230769 198.153846,0 194.215385,0 C190.276923,0 186.830769,1.6 183.384615,4.18461538 L19.9384615,128.123077 L307.2,128.123077 L203.815385,5.29230769 Z M348.8,197.415385 C350.030769,198.769231 351.753846,199.753846 353.723077,199.753846 C357.292308,199.753846 360.123077,196.923077 360.123077,193.353846 C360.123077,191.753846 359.507692,190.276923 358.646154,189.169231 L319.630769,142.769231 C316.8,139.446154 312.615385,137.353846 307.815385,137.353846 L306.092308,137.353846 C301.415385,137.353846 297.107692,139.446154 294.276923,142.769231 L255.138462,189.169231 C254.153846,190.276923 253.661538,191.753846 253.661538,193.353846 C253.661538,196.923077 256.492308,199.753846 260.061538,199.753846 C262.030769,199.753846 263.753846,198.892308 264.984615,197.415385 L304.123077,151.015385 C304.738462,150.276923 305.846154,149.784615 306.830769,149.784615 C307.938462,149.784615 308.923077,150.276923 309.538462,151.015385 L348.8,197.415385 Z M298.215385,179.815385 L315.692308,179.815385 C319.138462,179.815385 321.969231,176.984615 321.969231,173.538462 C321.969231,170.092308 319.138462,167.261538 315.692308,167.261538 C309.292308,167.261538 304.615385,167.261538 298.215385,167.261538 C294.769231,167.261538 291.938462,170.092308 291.938462,173.538462 C292.061538,176.984615 294.769231,179.815385 298.215385,179.815385 Z" id="Shape"></path>
            <path d="M202.215385,1.72295385 L389.907692,103.015262 C389.907692,103.015262 399.384615,108.184492 399.384615,118.153723 L399.384615,144.738462 L202.215385,1.72295385 Z M76.9230769,149.784615 C80.3692308,149.784615 83.2,146.953846 83.2,143.507692 C83.2,140.061538 80.3692308,137.230769 76.9230769,137.230769 L17.4769231,137.230769 C7.87692308,137.230769 0,145.107692 0,154.707692 L0,182.153846 C0,191.753846 7.87692308,199.630769 17.4769231,199.630769 L76.9230769,199.630769 C80.3692308,199.630769 83.2,196.8 83.2,193.353846 C83.2,189.907692 80.3692308,187.076923 76.9230769,187.076923 L17.4769231,187.076923 C14.7692308,187.076923 12.4307692,184.861538 12.4307692,182.030769 L12.4307692,154.584615 C12.4307692,151.876923 14.6461538,149.538462 17.4769231,149.538462 L76.9230769,149.538462 L76.9230769,149.784615 Z M102.276923,199.753846 C92.6769231,199.753846 84.8,191.876923 84.8,182.276923 L84.8,154.830769 C84.8,145.230769 92.6769231,137.353846 102.276923,137.353846 L155.569231,137.353846 C165.169231,137.353846 173.046154,145.230769 173.046154,154.830769 L173.046154,155.692308 C173.046154,165.292308 165.169231,173.169231 155.569231,173.169231 L109.784615,173.169231 C106.338462,173.169231 103.507692,170.338462 103.507692,166.892308 C103.507692,163.446154 106.338462,160.615385 109.784615,160.615385 L155.569231,160.615385 C158.276923,160.615385 160.615385,158.4 160.615385,155.569231 L160.615385,154.707692 C160.615385,152 158.4,149.661538 155.569231,149.661538 L102.276923,149.661538 C99.5692308,149.661538 97.2307692,151.876923 97.2307692,154.707692 L97.2307692,182.153846 C97.2307692,184.861538 99.4461538,187.2 102.276923,187.2 L166.769231,187.2 C170.215385,187.2 173.046154,190.030769 173.046154,193.476923 C173.046154,196.923077 170.215385,199.753846 166.769231,199.753846 L102.276923,199.753846 Z M186.092308,139.569231 C184.861538,138.215385 183.138462,137.230769 181.169231,137.230769 C177.6,137.230769 174.769231,140.061538 174.769231,143.630769 C174.769231,145.230769 175.384615,146.707692 176.246154,147.815385 L215.384615,194.215385 C218.215385,197.538462 222.4,199.630769 227.2,199.630769 L228.923077,199.630769 C233.6,199.630769 237.907692,197.538462 240.738462,194.215385 L279.876923,147.815385 C280.861538,146.707692 281.353846,145.230769 281.353846,143.630769 C281.353846,140.061538 278.523077,137.230769 274.953846,137.230769 C272.984615,137.230769 271.261538,138.092308 270.030769,139.569231 L230.892308,185.969231 C230.276923,186.707692 229.169231,187.2 228.184615,187.2 C227.076923,187.2 226.092308,186.707692 225.476923,185.969231 L186.092308,139.569231 Z" id="Shape"></path>
        </g>
    </g>
</svg>
